img/icons/mime/large/rgb.svg

<svg height="140.9" width="125.3" xmlns="http://www.w3.org/2000/svg" xmlns:xlink="http://www.w3.org/1999/xlink"><linearGradient id="a" gradientTransform="matrix(.939922 0 0 .896911 -12.081733 -3.352424)" gradientUnits="userSpaceOnUse" x1="24" x2="73" y1="16.4" y2="73.4"><stop offset="0" stop-color="#fff"/><stop offset="1" stop-color="#fff" stop-opacity="0"/></linearGradient><linearGradient id="b" gradientTransform="matrix(1.222575 0 0 .738788 -10.653167 -7.742593)" gradientUnits="userSpaceOnUse" x1="12.2" x2="107.8" y1="84" y2="84"><stop offset="0" stop-color="#46a046"/><stop offset=".4" stop-color="#df421e"/><stop offset=".7" stop-color="#ada7c8"/><stop offset="1" stop-color="#eed680"/></linearGradient><g stroke="#000"><rect fill="none" height="133.4" rx="22.9" stroke-linejoin="round" stroke-opacity=".5" stroke-width="7.5" width="117.8" x="3.8" y="3.8"/><rect fill="#df421e" height="133.4" rx="22.9" stroke-width="3.8" width="117.8" x="3.6" y="3.7"/><rect fill="url(#b)" height="67.2" rx="1.3" stroke-width="3.3" width="113.7" x="5.9" y="20.8"/></g><path d="m100.3 132.6h-75.7c-11.6 0-17.3-5.7-17.3-17.4 0 0 27.6-66.5 110.4-76.6v76.6c0 11.7-5.7 17.4-17.4 17.4z" fill="#fff" fill-opacity=".3"/><path d="m24.6 7.3h75.7c11.7 0 17.4 5.7 17.4 17.4 0 0-79.3.9-110.4 91.3v-91.3c0-10.3 7-17.4 17.3-17.4z" fill="url(#a)"/><path d="m80.2 126.3v-31.1h19.2c2.6 0 4.7.7 6.5 2 2 1.4 2.9 3.3 2.9 5.7 0 1.8-.4 3.4-1.2 4.8-.4.6-.9 1.2-1.4 1.7-.6.4-1.3.9-2.3 1.4 1.6.6 2.9 1.5 3.9 2.8.9 1.3 1.4 2.8 1.4 4.5 0 3-1 5.2-3 6.5-1.6 1.2-3.9 1.7-6.8 1.7zm17.2-18.1c1.4 0 2.5-.3 3.3-1s1.2-1.7 1.2-2.9c0-2.6-1.5-4-4.5-4h-10.5v7.9zm0 13c1.4 0 2.5-.3 3.3-1s1.2-1.7 1.2-2.9c0-2.6-1.5-4-4.5-4h-10.5v7.9zm-37.2 5.1c-4.2 0-7.4-1.3-9.7-4-2.2-2.6-3.3-6.5-3.3-11.5 0-5.1 1.1-8.9 3.3-11.6 2.3-2.6 5.5-4 9.7-4h16.8v5.4h-14.8c-2.5 0-4.4.8-5.7 2.5-1.3 1.8-1.9 4.3-1.9 7.7s.6 6 1.8 7.7 3.1 2.5 5.8 2.5h8.2v-7.7h-8.8v-5.1h15.4v18.1zm-30.7-12.2h-7.1v12.2h-6.8v-31.1h18.1c3 0 5.2.8 6.8 2.2 1.8 1.6 2.6 4 2.6 7.3 0 1.2-.1 2.3-.3 3.2-.2 1-.6 1.8-1.1 2.6-.9 1.4-2.4 2.4-4.4 3.2h-.1l6.8 12.6h-8zm-7.1-13.5v8.6h7.8c1.5 0 2.7-.3 3.5-.9 1-.6 1.5-1.8 1.5-3.4 0-1.5-.5-2.6-1.4-3.3s-2.1-1-3.6-1z"/><path d="m79.5 125.7v-31.1h19.3c2.5 0 4.7.6 6.4 1.9 2 1.5 3 3.4 3 5.8 0 1.7-.5 3.3-1.3 4.7-.4.7-.9 1.2-1.4 1.7-.6.5-1.3.9-2.3 1.4 1.6.6 2.9 1.5 3.9 2.9.9 1.3 1.4 2.8 1.4 4.5 0 2.9-1 5.1-3 6.5-1.6 1.1-3.9 1.7-6.7 1.7zm17.2-18.1c1.4 0 2.6-.4 3.3-1.1.8-.7 1.2-1.6 1.2-2.9 0-2.6-1.5-3.9-4.5-3.9h-10.5v7.9zm0 13c1.4 0 2.6-.4 3.3-1.1.8-.7 1.2-1.6 1.2-2.9 0-2.6-1.5-3.9-4.5-3.9h-10.5v7.9zm-37.1 5.1c-4.3 0-7.5-1.4-9.8-4-2.2-2.7-3.3-6.6-3.3-11.6 0-5.1 1.1-8.9 3.3-11.5 2.3-2.7 5.5-4 9.8-4h16.7v5.3h-14.7c-2.6 0-4.5.9-5.8 2.6s-1.9 4.2-1.9 7.6.6 6 1.8 7.7 3.1 2.6 5.9 2.6h8.1v-7.7h-8.8v-5.1h15.4v18.1zm-30.8-12.3h-7.1v12.3h-6.7v-31.1h18c3 0 5.3.7 6.8 2.2 1.8 1.6 2.6 4 2.6 7.2 0 1.2-.1 2.3-.3 3.3-.2.9-.6 1.7-1.1 2.5-.9 1.4-2.3 2.5-4.4 3.2h-.1l6.8 12.7h-7.9zm-7.1-13.5v8.7h7.8c1.6 0 2.7-.3 3.5-.9 1-.7 1.5-1.8 1.5-3.5 0-1.5-.5-2.6-1.4-3.2-.9-.7-2.1-1.1-3.6-1.1z" fill="#fff"/></svg>

<svg xmlns:svg="http://www.w3.org/2000/svg" xmlns="http://www.w3.org/2000/svg" xmlns:xlink="http://www.w3.org/1999/xlink" height="140.9" width="125.3" id="svg1" version="1">
<style>
.s0{
  stop-color:#46a046;
  stop-opacity:1;
}
.s1{
  stop-color:#df421e;
  stop-opacity:1;
}
.s2{
  stop-color:#ada7c8;
  stop-opacity:1;
}
.s3{
  stop-color:#eed680;
  stop-opacity:1;
}
.s4{
  stop-color:#00ff00;
  stop-opacity:1;
}
.s5{
  stop-color:#ff0000;
  stop-opacity:1;
}
.s6{
  stop-color:#7f8cff;
  stop-opacity:1;
}
.s7{
  stop-color:#ffff00;
  stop-opacity:1;
}

</style>  <metadata id="metadata15"/>
  <defs id="defs3">
    <linearGradient id="linearGradient3587">
      <stop offset="0" id="stop3589" style="stop-color:#efe0cd;stop-opacity:0.6"/>
      <stop offset="1" id="stop3591" style="stop-color:#cececd;stop-opacity:0.2"/>
    </linearGradient>
    <linearGradient id="linearGradient2832">
      <stop id="stop2834" offset="0" style="stop-color:#ffffff;stop-opacity:1"/>
      <stop id="stop2836" offset="1" style="stop-color:#ffffff;stop-opacity:0"/>
    </linearGradient>
    <linearGradient id="linearGradient839">
      <stop id="stop840" offset="0" class="s0"/>
      <stop id="stop841" offset="0.4" class="s1"/>
      <stop id="stop842" offset="0.7" class="s2"/>
      <stop id="stop843" offset="1" class="s3"/>
    </linearGradient>
    <linearGradient y2="84" x2="107.8" y1="84" x1="12.2" id="linearGradient836" xlink:href="#linearGradient839" gradientTransform="scale(1.353569,0.738788)" gradientUnits="userSpaceOnUse"/>
    <linearGradient gradientUnits="userSpaceOnUse" y2="73.4" x2="73" y1="16.4" x1="24" gradientTransform="matrix(0.939922,0,0,0.896911,-12.081733,-3.3524237)" id="linearGradient2830" xlink:href="#linearGradient2832"/>
    <linearGradient xlink:href="#linearGradient1700" id="linearGradient1407" gradientUnits="userSpaceOnUse" gradientTransform="matrix(0.777129,0,0,0.894628,-162.4688,12.76856)" x1="111.3" y1="124.3" x2="107.3" y2="93.7"/>
    <linearGradient xlink:href="#linearGradient1700" id="linearGradient1390" gradientUnits="userSpaceOnUse" gradientTransform="matrix(0.777129,0,0,0.894628,-2.922179,10.43077)" x1="111.3" y1="124.3" x2="107.3" y2="93.7"/>
    <linearGradient id="linearGradient1350">
      <stop id="stop1352" offset="0" class="s0"/>
      <stop id="stop1354" offset="0.4" class="s1"/>
      <stop id="stop1356" offset="0.7" class="s2"/>
      <stop id="stop1358" offset="1" class="s3"/>
    </linearGradient>
    <linearGradient y2="0.5" x2="1" y1="0.5" x1="0" id="linearGradient1360" xlink:href="#linearGradient839"/>
    <linearGradient gradientUnits="userSpaceOnUse" y2="88" x2="128.7" y1="121.7" x1="123.5" gradientTransform="matrix(0.870364,0,0,1.001961,4.612015,4.886798)" id="linearGradient1362" xlink:href="#linearGradient1700"/>
    <linearGradient y2="0.5" x2="1" y1="0.5" x1="0" id="linearGradient1363" xlink:href="#linearGradient839"/>
    <linearGradient id="linearGradient1353">
      <stop id="stop1355" offset="0" class="s0"/>
      <stop id="stop1357" offset="0.4" class="s1"/>
      <stop id="stop1359" offset="0.7" class="s2"/>
      <stop id="stop1361" offset="1" class="s3"/>
    </linearGradient>
    <linearGradient id="linearGradient1700">
      <stop id="stop1701" offset="0" style="stop-color:#000000;stop-opacity:0.7"/>
      <stop id="stop1702" offset="1" style="stop-color:#000000;stop-opacity:0"/>
    </linearGradient>
    <linearGradient xlink:href="#linearGradient839" id="linearGradient1427" x1="0" y1="0.5" x2="1" y2="0.5"/>
    <linearGradient id="linearGradient1417">
      <stop offset="0" id="stop1419" class="s0"/>
      <stop offset="0.4" id="stop1421" class="s1"/>
      <stop offset="0.7" id="stop1423" class="s2"/>
      <stop offset="1" id="stop1425" class="s3"/>
    </linearGradient>
    <linearGradient y2="0.5" x2="1" y1="0.5" x1="0" id="linearGradient1381" xlink:href="#linearGradient839"/>
    <linearGradient id="linearGradient1371">
      <stop id="stop1373" offset="0" class="s0"/>
      <stop id="stop1375" offset="0.4" class="s1"/>
      <stop id="stop1377" offset="0.7" class="s2"/>
      <stop id="stop1379" offset="1" class="s3"/>
    </linearGradient>
    <linearGradient xlink:href="#linearGradient839" id="linearGradient1374" x1="0" y1="0.5" x2="1" y2="0.5"/>
    <linearGradient id="linearGradient1364">
      <stop offset="0" id="stop1366" class="s0"/>
      <stop offset="0.4" id="stop1368" class="s1"/>
      <stop offset="0.7" id="stop1370" class="s2"/>
      <stop offset="1" id="stop1372" class="s3"/>
    </linearGradient>
    <linearGradient xlink:href="#linearGradient839" id="linearGradient1389" x1="0" y1="0.5" x2="1" y2="0.5"/>
    <linearGradient id="linearGradient833">
      <stop offset="0" id="stop834" class="s4"/>
      <stop offset="0.3" id="stop837" class="s5"/>
      <stop offset="0.8" id="stop838" class="s6"/>
      <stop offset="1" id="stop835" class="s7"/>
    </linearGradient>
    <linearGradient id="linearGradient1373">
      <stop offset="0" id="stop1376" class="s0"/>
      <stop offset="0.4" id="stop1378" class="s1"/>
      <stop offset="0.7" id="stop1380" class="s2"/>
      <stop offset="1" id="stop1382" class="s3"/>
    </linearGradient>
    <linearGradient xlink:href="#linearGradient839" id="linearGradient1401" gradientUnits="userSpaceOnUse" gradientTransform="matrix(1.222575,0,0,0.738788,-10.653167,-7.7425927)" x1="12.2" y1="84" x2="107.8" y2="84"/>
    <linearGradient xlink:href="#linearGradient839" id="linearGradient2974" x1="0" y1="0.5" x2="1" y2="0.5"/>
    <linearGradient id="linearGradient2964">
      <stop offset="0" id="stop2966" class="s4"/>
      <stop offset="0.3" id="stop2968" class="s5"/>
      <stop offset="0.8" id="stop2970" class="s6"/>
      <stop offset="1" id="stop2972" class="s7"/>
    </linearGradient>
    <linearGradient id="linearGradient2954">
      <stop offset="0" id="stop2956" class="s0"/>
      <stop offset="0.4" id="stop2958" class="s1"/>
      <stop offset="0.7" id="stop2960" class="s2"/>
      <stop offset="1" id="stop2962" class="s3"/>
    </linearGradient>
    <linearGradient xlink:href="#linearGradient839" id="linearGradient2987" gradientUnits="userSpaceOnUse" gradientTransform="matrix(1.353569,0,0,0.738788,-182.1667,-25.6819)" x1="12.2" y1="84" x2="107.8" y2="84"/>
    <linearGradient y2="0.5" x2="1" y1="0.5" x1="0" id="linearGradient1418" xlink:href="#linearGradient839"/>
    <linearGradient id="linearGradient1408">
      <stop id="stop1410" offset="0" class="s4"/>
      <stop id="stop1412" offset="0.3" class="s5"/>
      <stop id="stop1414" offset="0.8" class="s6"/>
      <stop id="stop1416" offset="1" class="s7"/>
    </linearGradient>
    <linearGradient id="linearGradient1397">
      <stop id="stop1399" offset="0" class="s0"/>
      <stop id="stop1401" offset="0.4" class="s1"/>
      <stop id="stop1403" offset="0.7" class="s2"/>
      <stop id="stop1405" offset="1" class="s3"/>
    </linearGradient>
    <linearGradient y2="84" x2="107.8" y1="84" x1="12.2" gradientTransform="matrix(1.353569,0,0,0.738788,-194.7091,-13.83491)" gradientUnits="userSpaceOnUse" id="linearGradient1431" xlink:href="#linearGradient839"/>
    <linearGradient xlink:href="#linearGradient839" id="linearGradient1430" x1="0" y1="0.5" x2="1" y2="0.5"/>
    <linearGradient id="linearGradient1419">
      <stop offset="0" id="stop1422" class="s4"/>
      <stop offset="0.3" id="stop1424" class="s5"/>
      <stop offset="0.8" id="stop1426" class="s6"/>
      <stop offset="1" id="stop1428" class="s7"/>
    </linearGradient>
    <linearGradient id="linearGradient1409">
      <stop offset="0" id="stop1411" class="s0"/>
      <stop offset="0.4" id="stop1413" class="s1"/>
      <stop offset="0.7" id="stop1415" class="s2"/>
      <stop offset="1" id="stop1417" class="s3"/>
    </linearGradient>
    <linearGradient xlink:href="#linearGradient839" id="linearGradient2256" x1="0" y1="0.5" x2="1" y2="0.5"/>
    <linearGradient id="linearGradient2246">
      <stop offset="0" id="stop2248" class="s4"/>
      <stop offset="0.3" id="stop2250" class="s5"/>
      <stop offset="0.8" id="stop2252" class="s6"/>
      <stop offset="1" id="stop2254" class="s7"/>
    </linearGradient>
    <linearGradient id="linearGradient2236">
      <stop offset="0" id="stop2238" class="s0"/>
      <stop offset="0.4" id="stop2240" class="s1"/>
      <stop offset="0.7" id="stop2242" class="s2"/>
      <stop offset="1" id="stop2244" class="s3"/>
    </linearGradient>
    <linearGradient xlink:href="#linearGradient839" id="linearGradient2269" gradientUnits="userSpaceOnUse" gradientTransform="matrix(1.353569,0,0,0.738788,-202.1667,-3.665422)" x1="12.2" y1="84" x2="107.8" y2="84"/>
    <linearGradient y2="0.5" x2="1" y1="0.5" x1="0" id="linearGradient1452" xlink:href="#linearGradient839"/>
    <linearGradient id="linearGradient1442">
      <stop id="stop1444" offset="0" class="s4"/>
      <stop id="stop1446" offset="0.3" class="s5"/>
      <stop id="stop1448" offset="0.8" class="s6"/>
      <stop id="stop1450" offset="1" class="s7"/>
    </linearGradient>
    <linearGradient id="linearGradient1432">
      <stop id="stop1434" offset="0" class="s0"/>
      <stop id="stop1436" offset="0.4" class="s1"/>
      <stop id="stop1438" offset="0.7" class="s2"/>
      <stop id="stop1440" offset="1" class="s3"/>
    </linearGradient>
    <linearGradient y2="0.5" x2="1" y1="0.5" x1="0" id="linearGradient2281" xlink:href="#linearGradient839"/>
    <linearGradient id="linearGradient2271">
      <stop id="stop2273" offset="0" class="s4"/>
      <stop id="stop2275" offset="0.3" class="s5"/>
      <stop id="stop2277" offset="0.8" class="s6"/>
      <stop id="stop2279" offset="1" class="s7"/>
    </linearGradient>
    <linearGradient id="linearGradient2261">
      <stop id="stop2263" offset="0" class="s0"/>
      <stop id="stop2265" offset="0.4" class="s1"/>
      <stop id="stop2267" offset="0.7" class="s2"/>
      <stop id="stop2269" offset="1" class="s3"/>
    </linearGradient>
    <linearGradient y2="84" x2="107.8" y1="84" x1="12.2" gradientTransform="matrix(1.353569,0,0,0.738788,-163.5227,-7.733217)" gradientUnits="userSpaceOnUse" id="linearGradient2294" xlink:href="#linearGradient839"/>
    <linearGradient xlink:href="#linearGradient839" id="linearGradient1475" x1="0" y1="0.5" x2="1" y2="0.5"/>
    <linearGradient id="linearGradient1465">
      <stop offset="0" id="stop1467" class="s4"/>
      <stop offset="0.3" id="stop1469" class="s5"/>
      <stop offset="0.8" id="stop1471" class="s6"/>
      <stop offset="1" id="stop1473" class="s7"/>
    </linearGradient>
    <linearGradient id="linearGradient1455">
      <stop offset="0" id="stop1457" class="s0"/>
      <stop offset="0.4" id="stop1459" class="s1"/>
      <stop offset="0.7" id="stop1461" class="s2"/>
      <stop offset="1" id="stop1463" class="s3"/>
    </linearGradient>
    <linearGradient xlink:href="#linearGradient839" id="linearGradient2300" x1="0" y1="0.5" x2="1" y2="0.5"/>
    <linearGradient id="linearGradient2290">
      <stop offset="0" id="stop2292" class="s4"/>
      <stop offset="0.3" id="stop2294" class="s5"/>
      <stop offset="0.8" id="stop2296" class="s6"/>
      <stop offset="1" id="stop2298" class="s7"/>
    </linearGradient>
    <linearGradient id="linearGradient2280">
      <stop offset="0" id="stop2282" class="s0"/>
      <stop offset="0.4" id="stop2284" class="s1"/>
      <stop offset="0.7" id="stop2286" class="s2"/>
      <stop offset="1" id="stop2288" class="s3"/>
    </linearGradient>
    <linearGradient xlink:href="#linearGradient839" id="linearGradient2313" gradientUnits="userSpaceOnUse" gradientTransform="matrix(1.353569,0,0,0.738788,-186.9125,-34.85186)" x1="12.2" y1="84" x2="107.8" y2="84"/>
    <linearGradient y2="0.5" x2="1" y1="0.5" x1="0" id="linearGradient1498" xlink:href="#linearGradient839"/>
    <linearGradient id="linearGradient1488">
      <stop id="stop1490" offset="0" class="s4"/>
      <stop id="stop1492" offset="0.3" class="s5"/>
      <stop id="stop1494" offset="0.8" class="s6"/>
      <stop id="stop1496" offset="1" class="s7"/>
    </linearGradient>
    <linearGradient id="linearGradient1478">
      <stop id="stop1480" offset="0" class="s0"/>
      <stop id="stop1482" offset="0.4" class="s1"/>
      <stop id="stop1484" offset="0.7" class="s2"/>
      <stop id="stop1486" offset="1" class="s3"/>
    </linearGradient>
    <linearGradient y2="0.5" x2="1" y1="0.5" x1="0" id="linearGradient2325" xlink:href="#linearGradient839"/>
    <linearGradient id="linearGradient2315">
      <stop id="stop2317" offset="0" class="s4"/>
      <stop id="stop2319" offset="0.3" class="s5"/>
      <stop id="stop2321" offset="0.8" class="s6"/>
      <stop id="stop2323" offset="1" class="s7"/>
    </linearGradient>
    <linearGradient id="linearGradient2305">
      <stop id="stop2307" offset="0" class="s0"/>
      <stop id="stop2309" offset="0.4" class="s1"/>
      <stop id="stop2311" offset="0.7" class="s2"/>
      <stop id="stop2313" offset="1" class="s3"/>
    </linearGradient>
    <linearGradient y2="84" x2="107.8" y1="84" x1="12.2" gradientTransform="matrix(1.353569,0,0,0.738788,-166.5735,-17.22474)" gradientUnits="userSpaceOnUse" id="linearGradient2338" xlink:href="#linearGradient839"/>
    <linearGradient y2="0.5" x2="1" y1="0.5" x1="0" id="linearGradient3150" xlink:href="#linearGradient839"/>
    <linearGradient id="linearGradient3140">
      <stop id="stop3142" offset="0" class="s4"/>
      <stop id="stop3144" offset="0.3" class="s5"/>
      <stop id="stop3146" offset="0.8" class="s6"/>
      <stop id="stop3148" offset="1" class="s7"/>
    </linearGradient>
    <linearGradient id="linearGradient3130">
      <stop id="stop3132" offset="0" class="s0"/>
      <stop id="stop3134" offset="0.4" class="s1"/>
      <stop id="stop3136" offset="0.7" class="s2"/>
      <stop id="stop3138" offset="1" class="s3"/>
    </linearGradient>
    <linearGradient y2="84" x2="107.8" y1="84" x1="12.2" gradientTransform="matrix(1.353569,0,0,0.738788,-183.5227,-0.27559)" gradientUnits="userSpaceOnUse" id="linearGradient3163" xlink:href="#linearGradient839"/>
    <linearGradient xlink:href="#linearGradient839" id="linearGradient1533" x1="0" y1="0.5" x2="1" y2="0.5"/>
    <linearGradient id="linearGradient1523">
      <stop offset="0" id="stop1525" class="s4"/>
      <stop offset="0.3" id="stop1527" class="s5"/>
      <stop offset="0.8" id="stop1529" class="s6"/>
      <stop offset="1" id="stop1531" class="s7"/>
    </linearGradient>
    <linearGradient id="linearGradient1513">
      <stop offset="0" id="stop1515" class="s0"/>
      <stop offset="0.4" id="stop1517" class="s1"/>
      <stop offset="0.7" id="stop1519" class="s2"/>
      <stop offset="1" id="stop1521" class="s3"/>
    </linearGradient>
    <linearGradient xlink:href="#linearGradient839" id="linearGradient2359" x1="0" y1="0.5" x2="1" y2="0.5"/>
    <linearGradient id="linearGradient2349">
      <stop offset="0" id="stop2351" class="s4"/>
      <stop offset="0.3" id="stop2353" class="s5"/>
      <stop offset="0.8" id="stop2355" class="s6"/>
      <stop offset="1" id="stop2357" class="s7"/>
    </linearGradient>
    <linearGradient id="linearGradient2339">
      <stop offset="0" id="stop2341" class="s0"/>
      <stop offset="0.4" id="stop2343" class="s1"/>
      <stop offset="0.7" id="stop2345" class="s2"/>
      <stop offset="1" id="stop2347" class="s3"/>
    </linearGradient>
    <linearGradient xlink:href="#linearGradient839" id="linearGradient2372" gradientUnits="userSpaceOnUse" gradientTransform="matrix(1.353569,0,0,0.738788,-166.9125,-10.44508)" x1="12.2" y1="84" x2="107.8" y2="84"/>
    <linearGradient xlink:href="#linearGradient839" id="linearGradient3184" x1="0" y1="0.5" x2="1" y2="0.5"/>
    <linearGradient id="linearGradient3174">
      <stop offset="0" id="stop3176" class="s4"/>
      <stop offset="0.3" id="stop3178" class="s5"/>
      <stop offset="0.8" id="stop3180" class="s6"/>
      <stop offset="1" id="stop3182" class="s7"/>
    </linearGradient>
    <linearGradient id="linearGradient3164">
      <stop offset="0" id="stop3166" class="s0"/>
      <stop offset="0.4" id="stop3168" class="s1"/>
      <stop offset="0.7" id="stop3170" class="s2"/>
      <stop offset="1" id="stop3172" class="s3"/>
    </linearGradient>
    <linearGradient xlink:href="#linearGradient839" id="linearGradient3197" gradientUnits="userSpaceOnUse" gradientTransform="matrix(1.353569,0,0,0.738788,-151.3193,-2.30949)" x1="12.2" y1="84" x2="107.8" y2="84"/>
  </defs>
  <rect rx="22.9" ry="22.9" y="3.8" x="3.8" height="133.4" width="117.8" id="rect834" style="fill:none;stroke-linejoin:round;stroke-opacity:0.5;stroke-width:7.5;stroke:#000"/>
  <rect rx="22.9" ry="22.9" y="3.7" x="3.6" height="133.4" width="117.8" id="rect828" style="fill:#df421e;stroke-width:3.8;stroke:#000"/>
  <rect id="rect832" width="113.7" height="67.2" ry="1.3" x="5.9" y="20.8" rx="1.3" style="fill:url(#linearGradient1401);stroke-width:3.3;stroke:#000"/>
  <path id="path2838" d="M100.3 132.6L24.6 132.6C13 132.6 7.3 126.9 7.3 115.2 7.3 115.2 34.9 48.7 117.7 38.6L117.7 115.2C117.7 126.9 112 132.6 100.3 132.6z" style="fill-opacity:0.3;fill:#fff"/>
  <path id="rect2063" d="M24.6 7.3L100.3 7.3C112 7.3 117.7 13 117.7 24.7 117.7 24.7 38.4 25.6 7.3 116L7.3 24.7C7.3 14.4 14.3 7.3 24.6 7.3z" fill="url(#linearGradient2830)"/>
  <path d="M80.2 126.3L80.2 95.2 99.4 95.2C102 95.2 104.1 95.9 105.9 97.2 107.9 98.6 108.8 100.5 108.8 102.9 108.8 104.7 108.4 106.3 107.6 107.7 107.2 108.3 106.7 108.9 106.2 109.4 105.6 109.8 104.9 110.3 103.9 110.8 105.5 111.4 106.8 112.3 107.8 113.6 108.7 114.9 109.2 116.4 109.2 118.1 109.2 121.1 108.2 123.3 106.2 124.6 104.6 125.8 102.3 126.3 99.4 126.3L80.2 126.3zM97.4 108.2C98.8 108.2 99.9 107.9 100.7 107.2 101.5 106.5 101.9 105.5 101.9 104.3 101.9 101.7 100.4 100.3 97.4 100.3L86.9 100.3 86.9 108.2 97.4 108.2zM97.4 121.2C98.8 121.2 99.9 120.9 100.7 120.2 101.5 119.5 101.9 118.5 101.9 117.3 101.9 114.7 100.4 113.3 97.4 113.3L86.9 113.3 86.9 121.2 97.4 121.2zM60.2 126.3C56 126.3 52.8 125 50.5 122.3 48.3 119.7 47.2 115.8 47.2 110.8 47.2 105.7 48.3 101.9 50.5 99.2 52.8 96.6 56 95.2 60.2 95.2L77 95.2 77 100.6 62.2 100.6C59.7 100.6 57.8 101.4 56.5 103.1 55.2 104.9 54.6 107.4 54.6 110.8 54.6 114.2 55.2 116.8 56.4 118.5 57.6 120.2 59.5 121 62.2 121L70.4 121 70.4 113.3 61.6 113.3 61.6 108.2 77 108.2 77 126.3 60.2 126.3zM29.5 114.1L22.4 114.1 22.4 126.3 15.6 126.3 15.6 95.2 33.7 95.2C36.7 95.2 38.9 96 40.5 97.4 42.3 99 43.1 101.4 43.1 104.7 43.1 105.9 43 107 42.8 107.9 42.6 108.9 42.2 109.7 41.7 110.5 40.8 111.9 39.3 112.9 37.3 113.7L37.2 113.7 44 126.3 36 126.3 29.5 114.1zM22.4 100.6L22.4 109.2 30.2 109.2C31.7 109.2 32.9 108.9 33.7 108.3 34.7 107.7 35.2 106.5 35.2 104.9 35.2 103.4 34.7 102.3 33.8 101.6 32.9 100.9 31.7 100.6 30.2 100.6L22.4 100.6z" id="path897" style="font-family:Trek;font-size:40;stroke-width:1"/>
  <path d="M79.5 125.7L79.5 94.6 98.8 94.6C101.3 94.6 103.5 95.2 105.2 96.5 107.2 98 108.2 99.9 108.2 102.3 108.2 104 107.7 105.6 106.9 107 106.5 107.7 106 108.2 105.5 108.7 104.9 109.2 104.2 109.6 103.2 110.1 104.8 110.7 106.1 111.6 107.1 113 108 114.3 108.5 115.8 108.5 117.5 108.5 120.4 107.5 122.6 105.5 124 103.9 125.1 101.6 125.7 98.8 125.7L79.5 125.7zM96.7 107.6C98.1 107.6 99.3 107.2 100 106.5 100.8 105.8 101.2 104.9 101.2 103.6 101.2 101 99.7 99.7 96.7 99.7L86.2 99.7 86.2 107.6 96.7 107.6zM96.7 120.6C98.1 120.6 99.3 120.2 100 119.5 100.8 118.8 101.2 117.9 101.2 116.6 101.2 114 99.7 112.7 96.7 112.7L86.2 112.7 86.2 120.6 96.7 120.6zM59.6 125.7C55.3 125.7 52.1 124.3 49.8 121.7 47.6 119 46.5 115.1 46.5 110.1 46.5 105 47.6 101.2 49.8 98.6 52.1 95.9 55.3 94.6 59.6 94.6L76.3 94.6 76.3 99.9 61.6 99.9C59 99.9 57.1 100.8 55.8 102.5 54.5 104.2 53.9 106.7 53.9 110.1 53.9 113.5 54.5 116.1 55.7 117.8 56.9 119.5 58.8 120.4 61.6 120.4L69.7 120.4 69.7 112.7 60.9 112.7 60.9 107.6 76.3 107.6 76.3 125.7 59.6 125.7zM28.8 113.4L21.7 113.4 21.7 125.7 15 125.7 15 94.6 33 94.6C36 94.6 38.3 95.3 39.8 96.8 41.6 98.4 42.4 100.8 42.4 104 42.4 105.2 42.3 106.3 42.1 107.3 41.9 108.2 41.5 109 41 109.8 40.1 111.2 38.7 112.3 36.6 113L36.5 113 43.3 125.7 35.4 125.7 28.8 113.4zM21.7 99.9L21.7 108.6 29.5 108.6C31.1 108.6 32.2 108.3 33 107.7 34 107 34.5 105.9 34.5 104.2 34.5 102.7 34 101.6 33.1 101 32.2 100.3 31 99.9 29.5 99.9L21.7 99.9z" id="path3201" style="fill:#fff;font-family:Trek;font-size:40;stroke-width:1"/>
</svg>
